X:117
T:Reel des accord\'eonistes
C:Loreno Picard
S:Donna HÈbert, In Full Bloom
Z:robin.beech@mcgill.ca
M:4/4
L:1/8
K:Amix
A3f edcB | ABAG FDEF | G2F2 ECEG | ABAG FDFG |
A3f edcB | ABAG FDEF | GFEF GABc |1 dedc d2FG :|2 dedc d2dc |:
B2GB d2cB | BAFA DDEF | GECE A,CEC | DEFG Adc=c |
B2GB d2cB | BAFA ddcd | efec dBAG |1 FABc d2dc :|2 FABc d2 (3GAB |:
dBGd BGdA | FdAF d2cd | e2d2 c2B2 | ABAG FDBc |
dBGd BGdA | FdAF d2cd | efec dBAG |1 FABc d2Bc :|2 FABc d2FG |]

